public/images/Cc-by.svg

<?xml version="1.0" encoding="UTF-8" ?><!DOCTYPE svg
  PUBLIC "-//W3C//DTD SVG 1.1 Tiny//EN" "http://www.w3.org/Graphics/SVG/1.1/DTD/svg11-tiny.dtd">
<svg xmlns="http://www.w3.org/2000/svg" xmlns:xlink="http://www.w3.org/1999/xlink"
  width="64pt" height="64pt" viewBox="0 0 64 64" baseProfile="tiny" version="1.1">
<g id="surface1">
<path d="M 31.1875 0 C 13.90625 0.4375 0 14.613281 0 32 C 0 49.664063 14.335938 64 32 64 C 49.664063 64 64 49.664063 64 32 C 64 14.335938 49.664063 0 32 0 C 31.722656 0 31.460938 -0.0078125 31.1875 0 Z M 31.15625 5.5 C 31.441406 5.492188 31.714844 5.5 32 5.5 C 46.628906 5.5 58.5 17.371094 58.5 32 C 58.5 46.628906 46.628906 58.5 32 58.5 C 17.371094 58.5 5.5 46.628906 5.5 32 C 5.5 17.65625 16.921875 5.953125 31.15625 5.5 Z "/>
<path d="M 36.625 15.9375 C 36.625 18.488281 34.554688 20.5625 32 20.5625 C 29.445313 20.5625 27.375 18.488281 27.375 15.9375 C 27.375 13.382813 29.445313 11.3125 32 11.3125 C 34.554688 11.3125 36.625 13.382813 36.625 15.9375 Z "/>
<path d="M 27.214844 52.6875 L 36.785156 52.6875 L 36.785156 37.3125 L 39.679688 37.3125 C 39.679688 37.3125 39.675781 26.320313 39.679688 24.589844 C 39.675781 24.132813 39.71875 23.226563 39.058594 22.5625 C 38.394531 21.902344 37.5 21.941406 37.03125 21.941406 C 36.558594 21.945313 27.441406 21.945313 26.96875 21.941406 C 26.5 21.941406 25.605469 21.902344 24.941406 22.5625 C 24.28125 23.226563 24.324219 24.132813 24.320313 24.589844 C 24.324219 26.320313 24.320313 37.3125 24.320313 37.3125 L 27.214844 37.3125 Z "/>
</g>
</svg>

<?xml version="1.0" encoding="utf-8"?>
<svg version="1.1" id="cc-by" xmlns="http://www.w3.org/2000/svg" xmlns:xlink="http://www.w3.org/1999/xlink" x="0px" y="0px"
	 viewBox="0 0 64 64" style="enable-background:new 0 0 64 64;" xml:space="preserve">
<g>
	<path d="M31.2,0C13.9,0.4,0,14.6,0,32c0,17.7,14.3,32,32,32s32-14.3,32-32S49.7,0,32,0C31.7,0,31.5,0,31.2,0z M31.2,5.5
		c0.3,0,0.6,0,0.8,0c14.6,0,26.5,11.9,26.5,26.5S46.6,58.5,32,58.5S5.5,46.6,5.5,32C5.5,17.7,16.9,6,31.2,5.5z"/>
	<path d="M36.6,15.9c0,2.6-2.1,4.6-4.6,4.6s-4.6-2.1-4.6-4.6c0-2.6,2.1-4.6,4.6-4.6S36.6,13.4,36.6,15.9z"/>
	<path d="M27.2,52.7h9.6V37.3h2.9c0,0,0-11,0-12.7c0-0.5,0-1.4-0.6-2c-0.7-0.7-1.6-0.6-2-0.6c-0.5,0-9.6,0-10.1,0
		c-0.5,0-1.4,0-2,0.6c-0.7,0.7-0.6,1.6-0.6,2c0,1.7,0,12.7,0,12.7h2.9V52.7z"/>
</g>
</svg>
